X:552
T:Reel 552
M:4/4
K:Amaj
L:1/8
 (3EFG |A2GA F2EC|A,2CA, B,A,F,G,|A,2CF E2CE|AcBA GEFG|A2 (3AGA FEB,C|A,CEG F2EC|A,CB,A,  (3FGA ED|CEB,G, A,2|CE|AGAE F2EC|A2EA FAEA|B2Bc B2Bc|dcBA BGFG|A2 (3AGA  (3BAB  (3BAG |AGAF EFAB|cABG AFED|CDB,C A,2|
